app/assets/SVG/my_team.svg

<?xml version="1.0" encoding="UTF-8"?>
<svg width="32px" height="32px" viewBox="0 0 32 32" version="1.1" xmlns="http://www.w3.org/2000/svg" xmlns:xlink="http://www.w3.org/1999/xlink">
    <!-- Generator: Sketch 46.1 (44463) - http://www.bohemiancoding.com/sketch -->
    <title>my_team</title>
    <desc>Created with Sketch.</desc>
    <defs></defs>
    <g id="04_promoter_03" stroke="none" stroke-width="1" fill="none" fill-rule="evenodd">
        <g id="icon" transform="translate(-126.000000, -130.000000)" fill="#606060">
            <g id="my_team-copy" transform="translate(126.000000, 130.000000)">
                <path d="M8.40993521,26.6657365 C7.99206911,26.6657365 7.65188769,26.3222376 7.65188769,25.8998099 L7.65188769,24.0793348 C7.65188769,20.3974687 9.85028078,17.1326393 13.2527862,15.7614082 L13.4834903,15.6683801 L13.2884492,15.5138402 C12.0015378,14.4944017 11.2633952,12.9704276 11.2633952,11.3328294 C11.2633952,8.40030238 13.6286307,6.01460907 16.5361382,6.01460907 C19.443784,6.01460907 21.8092959,8.40030238 21.8092959,11.3328294 C21.8092959,12.9705659 21.0710151,14.49454 19.7838272,15.5138402 L19.5887862,15.6683801 L19.8196285,15.7614082 C23.2222721,17.1327775 25.4208035,20.3977451 25.4208035,24.0793348 L25.4208035,25.8998099 C25.4208035,26.3222376 25.0808985,26.6657365 24.6628942,26.6657365 L8.40993521,26.6657365 Z M16.5373006,17.0307636 C12.7700668,17.0307636 9.70513175,20.1204052 9.70513175,23.9178652 L9.70513175,24.8990334 L23.3663153,24.8990334 L23.3663153,23.9178652 C23.3663153,20.1204052 20.3028259,17.0307636 16.5373006,17.0307636 Z M16.536159,7.78841469 C14.6015135,7.78841469 13.0275272,9.37513321 13.0275272,11.3253692 C13.0275272,13.275735 14.6015135,14.8624536 16.536159,14.8624536 C18.4711943,14.8624536 20.0454404,13.275735 20.0454404,11.3253692 C20.0454404,9.37513321 18.4711943,7.78841469 16.536159,7.78841469 Z M26.5168207,23.7883629 C26.5082505,23.3029028 26.4550324,22.9422635 26.3531577,22.4655119 L27.7380734,22.4655119 L27.7380734,21.6142981 C27.7380734,19.044622 25.8494514,16.8116717 23.1448639,16.1838359 L22.9500994,16.1408467 C22.5967862,16.0316458 22.3519827,15.7430238 22.3519827,15.4256501 C22.3519827,15.1182289 22.5766048,14.8413564 22.9242505,14.7202678 C24.0463931,14.2518099 24.7661512,13.2236631 24.7661512,12.0976501 C24.7661512,10.8505486 23.4750929,9.7835594 22.2351793,9.39015983 C22.0246566,8.81637149 21.7148855,8.28018143 21.3134687,7.79541253 C21.2902462,7.76002592 21.2664708,7.72477754 21.2421425,7.68939093 C23.8812095,7.70307559 26.0236199,9.67560259 26.0236199,12.098203 C26.0236199,13.1877235 25.5810108,14.2363283 24.7766566,15.0509114 L24.6337279,15.1957754 L24.8172959,15.2831361 C27.3952657,16.5103326 28.9958186,18.9362505 28.9938834,21.6140216 L28.9938834,23.0225745 C28.9938834,23.4448639 28.6145832,23.7882246 28.1483369,23.7882246 L26.5168207,23.7882246 L26.5168207,23.7883629 Z M4.85800432,23.7883629 C4.39161987,23.7883629 4.01231965,23.4450022 4.01231965,23.0227127 L4.01231965,21.6142981 C4.01231965,18.9362505 5.61328726,16.5103326 8.19042765,15.2832743 L8.37399568,15.1959136 L8.23120518,15.0511879 C7.42740389,14.2363283 6.98451836,13.1877235 6.98451836,12.0983413 C6.98451836,9.67601728 9.12692873,7.70390497 11.7657192,7.69008207 C11.7411145,7.72574514 11.7173391,7.76099352 11.6943931,7.79610367 C11.2936674,8.28045788 10.9836199,8.81664795 10.7719914,9.3909892 C9.58460475,9.7697365 8.40592657,10.8071447 8.40592657,12.0983413 C8.40592657,13.224216 9.12582289,14.2523629 10.2398099,14.7175032 C10.595473,14.8420475 10.820095,15.1190583 10.820095,15.426203 C10.820095,15.7437149 10.5752916,16.0324752 10.2107819,16.1444406 L10.0285961,16.1841123 C7.32276458,16.8116717 5.43414255,19.0443456 5.43414255,21.6141598 L5.43414255,22.4653737 L6.65346004,22.4653737 C6.55158531,22.9447516 6.49822894,23.3058056 6.48952052,23.7882246 L4.85800432,23.7882246 L4.85800432,23.7883629 Z" id="Shape"></path>
            </g>
        </g>
    </g>
</svg>

<svg width="32" height="32" viewBox="0 0 32 32" xmlns="http://www.w3.org/2000/svg"><title>my_team</title><path d="M8.41 26.666a.763.763 0 0 1-.758-.766v-1.82a8.921 8.921 0 0 1 5.6-8.319l.231-.093-.195-.154a5.307 5.307 0 0 1-2.025-4.181c0-2.933 2.366-5.318 5.273-5.318 2.908 0 5.273 2.385 5.273 5.318a5.306 5.306 0 0 1-2.025 4.18l-.195.155.23.093a8.921 8.921 0 0 1 5.602 8.318v1.82c0 .423-.34.767-.758.767H8.41zm8.127-9.635c-3.767 0-6.832 3.09-6.832 6.887v.981h13.661v-.981c0-3.798-3.063-6.887-6.829-6.887zm0-9.243c-1.935 0-3.51 1.587-3.51 3.537s1.575 3.537 3.51 3.537c1.934 0 3.508-1.586 3.508-3.537 0-1.95-1.574-3.537-3.509-3.537zm9.98 16a6.34 6.34 0 0 0-.164-1.322h1.385v-.852c0-2.57-1.889-4.802-4.593-5.43l-.195-.043c-.353-.11-.598-.398-.598-.715 0-.308.225-.585.572-.706 1.122-.468 1.842-1.496 1.842-2.622 0-1.247-1.29-2.314-2.53-2.708a5.429 5.429 0 0 0-.923-1.595 5.932 5.932 0 0 0-.07-.106c2.638.014 4.78 1.987 4.78 4.41 0 1.089-.442 2.137-1.246 2.952l-.143.145.183.087c2.578 1.227 4.179 3.653 4.177 6.331v1.409c0 .422-.38.765-.846.765h-1.631zm-21.659 0c-.466 0-.846-.343-.846-.765v-1.409c0-2.678 1.601-5.104 4.178-6.33l.184-.088-.143-.145c-.804-.815-1.246-1.863-1.246-2.953 0-2.422 2.142-4.394 4.78-4.408l-.07.106a5.46 5.46 0 0 0-.923 1.595c-1.187.379-2.366 1.416-2.366 2.707 0 1.126.72 2.154 1.834 2.62.355.124.58.401.58.708 0 .318-.245.606-.61.718l-.181.04c-2.706.628-4.595 2.86-4.595 5.43v.851h1.22c-.102.48-.156.84-.164 1.323H4.858z" fill="#606060" fill-rule="evenodd"/></svg>
